!!!!SEGMENT: pl-cz--i-155--002-002_anonim-partita-es-adagio.krn
!!!id: 18xx:2499
!!!COM: Anonim
!!!OTL: Partita Es - Adagio
!!!PDT:
!!!SMS-siglum: PL-CZ
!!!SMS-shelfmark: I-155
!!!NIFC-rismID: 1001012509
!!!URL-scan: http://repozytorium.nifc.pl/skany/pl-cz-nut--i-155
!!!ONB-nifc: UWAGA: Parthia 2 (002), części: 1. Allegro, 2. Adagio, 3. Menuetto, 4. Rondo. Uwaga: 5 partii
!!!SMS-variant:
!!!SMS-altvar:
!!!OMD: Adagio
**kern	**kern	**kern	**kern	**kern
*group2	*group2	*group1	*group1	*group1
*part5	*part4	*part3	*part2	*part1
*staff5	*staff4	*staff3	*staff2	*staff1
*I"Corno Secondo	*I"Corno Primo.	*I"Fagotto	*I"Clarinetto Secondo	*I"Clarinetto Primo
*I'cor 2	*I'cor 1	*I'fag	*I'cl 2	*I'cl 1
*clefG2	*clefG2	*clefF4	*clefG2	*clefG2
*ITrd5c9	*ITrd5c9	*	*ITrd1c2	*ITrd1c2
*k[b-e-a-]	*k[b-e-a-]	*k[b-e-a-]	*k[b-e-a-]	*k[b-e-a-]
*M3/4	*M3/4	*M3/4	*M3/4	*M3/4
*8va	*	*	*	*
=1	=1	=1	=1	=1
*2\right	*2\right	*2\right	*2\right	*2\right
*clefF4	*	*	*	*
!LO:TX:t=P:problem:w źródle brak przenośnika 8va	!	!	!	!
!	!	!LO:TX:t=P:problem:znaki przykluczowe: BB-, E-, A-	!	!LO:TX:t=P:problem:all\right:global
!LO:TX:t=P:problem:w źródle klucz barytonowy	!	!LO:TX:t=P:problem:w źródle klucz barytonowy	!LO:N:vis=00	!LO:N:vis=00
16EE-/LL	2b-\	2g\	0.r	0.r
16E-/	.	.	.	.
16D/	.	.	.	.
16E-/JJ	.	.	.	.
4EE-/	.	.	.	.
.	16qqb-/	.	.	.
4BB-/	8a-\L	8f\L	.	.
.	16g\L	16e-\L	.	.
.	16f\JJ	16d\JJ	.	.
=2	=2	=2	=2	=2
.	16qqa-/	8qqd/	.	.
4E-/	4g\	4e-\	.	.
4BB-/	4f\	4d\	.	.
4r	4r	4r	.	.
=3	=3	=3	=3	=3
*tremolo	*	*	*	*
8AA-/L	4e-\	2c\	.	.
8AA-/	.	.	.	.
8AA-/	8c\L	.	.	.
8AA-/	8f\J	.	.	.
8AA-/	16a-\LL	8c\L	.	.
.	16cc\	.	.	.
8AA-/J	16a-\	16f\L	.	.
.	16g\JJ	16e-\JJ	.	.
=4	=4	=4	=4	=4
!LO:TX:t=P:problem:mixed beam	!	!	!	!
8.BB-/L	4g\	4e-\	.	.
16B-\Jk	.	.	.	.
4BB-/	4f\	4d\	.	.
4r	4r	4r	.	.
!	!LO:LB:g=original	!	!	!
=5	=5	=5	=5	=5
!LO:TX:t=P:problem:mixed beam	!	!	!LO:N:vis=0	!LO:N:vis=0
8BB-/L	4.f\	16BB-\LL	1.r	1.r
.	.	16D\	.	.
8B-\	.	16F\	.	.
.	.	16B-\JJ	.	.
8BB-/	.	8d\L	.	.
8B-\	8g\	8e-\J	.	.
.	8qqb-/	.	.	.
8BB-/	8a-\L	8f\L	.	.
8B-\J	16g\L	16e-\L	.	.
.	16f\JJ	16d\JJ	.	.
!LO:LB:g=original	!	!LO:LB:g=original	!	!
=6	=6	=6	=6	=6
8E-/	16g\LL	8e-\	.	.
.	16e-\	.	.	.
8r	16f\	8r	.	.
.	16g\JJ	.	.	.
8BB-/	16a-\LL	8d\	.	.
.	16f\	.	.	.
8r	16g\	8r	.	.
.	16a-\JJ	.	.	.
8EE-/	16b-\LL	8e-\	.	.
.	16cc\	.	.	.
8r	16dd\	8r	.	.
.	16ee-\JJ	.	.	.
=7	=7	=7	=7	=7
.	8qqdd/	.	.	.
!	!	!	!LO:N:vis=1	!LO:N:vis=1
4AA-/	8cc\L	8c\L	2.r	2.r
.	16b-\L	8f\J	.	.
.	16a-\JJ	.	.	.
4BB-/	4g\	4e-\	.	.
4BB-/	4f\	4d\	.	.
=8	=8	=8	=8	=8
4EE-/	4e-\	16E-\LL	2gg\	2bb-\
.	.	16e-\	.	.
.	.	16d\	.	.
.	.	16e-\JJ	.	.
4r	4r	4E-\	.	.
.	.	.	16qqgg/	8qqbb-/
4r	4r	4B-\	16ff\LL	16aa-\LL
.	.	.	16ee-\J	16gg\J
.	.	.	8dd\J	8ff\J
*X8va	*	*	*	*
=9	=9	=9	=9	=9
*clefG2	*	*	*	*
.	.	.	.	8qqaa-/
4G/	4e-\	4E-\	4ee-\	4gg\
4B-/	4f\	4BB-/	4dd\	4ff\
4r	4r	4r	4r	4r
!	!LO:LB:g=original	!	!	!
=10	=10	=10	=10	=10
!	!LO:TX:a:t=I	!LO:TX:t=P:problem:mixed beam	!	!
!LO:N:vis=1	!LO:N:vis=1	!	!	!
2.r	2.r	8AA-/L	2cc\	4ee-\
.	.	8A-\J	.	.
*	*	*tremolo	*	*
.	.	8A-\L	.	8cc\L
.	.	8A-\	.	8ee-\J
.	.	8A-\	8cc\L	16aa-\LL
.	.	.	.	16ccc\
.	.	8A-\J	16ff\L	16aa-\
.	.	.	16ee-\JJ	16gg\JJ
!	!	!	!	!LO:LB:g=original
=11	=11	=11	=11	=11
!	!	!	!	!LO:TX:a:t=P:problem:niejednoznaczny zapis wysokości nut w tym takcie
.	.	.	.	8qqaa-/
4e-\	4g\	4B-\	4ee-\	4gg\
4B-/	4f\	4BB-/	4dd\	4ff\
4r	4r	4r	4r	4r
=12	=12	=12	=12	=12
4G/	4e-\	2e-\	2g/	16r
.	.	.	.	16e-/LL
.	.	.	.	16g/
.	.	.	.	16b-/JJ
4r	4r	.	.	16ee-\LL
.	.	.	.	16b-\
.	.	.	.	16ee-\
.	.	.	.	16gg\JJ
*	*	*Xtremolo	*	*
4r	4r	8e-\L	8g/L	8bb-\L
.	.	8e-\J	8g/J	8bb-\J
!LO:LB:g=original	!	!LO:LB:g=original	!	!
=13	=13	=13	=13	=13
4B-/	4f\	2d\	2f/	16r
.	.	.	.	16d/LL
.	.	.	.	16f/
.	.	.	.	16b-/JJ
4r	4r	.	.	16dd\LL
.	.	.	.	16b-\
.	.	.	.	16dd\
.	.	.	.	16ff\JJ
4r	4r	8B-\L	8d/L	8bb-\L
.	.	8B-\J	8d/J	8bb-\J
!	!	!	!LO:LB:g=original	!
=14	=14	=14	=14	=14
4f\	4f\	2An\	2e-/	16r
.	.	.	.	16ccc\LL
.	.	.	.	16aa\
.	.	.	.	16gg\JJ
4r	4r	.	.	16ff\LL
.	.	.	.	16ee-\
.	.	.	.	16dd\
.	.	.	.	16ee-\JJ
!	!	!	!	!LO:LB:g=original
4r	4r	8A\L	8c/L	16cc/LL
.	.	.	.	16any/
.	.	8A\J	8c/J	16f/
.	.	.	.	16e-/JJ
=15	=15	=15	=15	=15
4c/	4f\	8B-\L	8B-/L	16d/LL
.	.	.	.	16f/
.	.	8d\J	8f/J	16b-/
.	.	.	.	16dd/JJ
*	*	*tremolo	*tremolo	*
4r	4r	8d\L	8f/L	16ff\LL
.	.	.	.	16dd\
.	.	8d\	8f/	16ff\
.	.	.	.	16bb-\JJ
4r	4r	8d\	8f/	16ddd\LL
.	.	.	.	16bb-\
.	.	8d\J	8f/J	16ff\
.	.	.	.	16dd\JJ
=16	=16	=16	=16	=16
!	!	!LO:TX:t=P:problem:mixed beam	!	!
4e-\	4f\	8e-\L	(<16e-/LL	8gg\L
.	.	.	16g/	.
!	!	!	!	!LO:TUP:a:problem:klamra łukowa
.	.	8E-\	16f/	24ee-\L
.	.	.	.	24dd\
.	.	.	16e-/JJ)	.
.	.	.	.	24cc\JJ
4f\	4f\	8F\	4d/	4b-\
.	.	8F\	.	.
4f\	4f\	8FF/	4e-/	4ccT>\
.	.	8FF/J	.	.
=17	=17	=17	=17	=17
8B-/L	8f\L	16BB-\LL	4d/	4b-\
.	.	16D\	.	.
8BB-/J	8f\J	16F\	.	.
.	.	16B-\JJ	.	.
4BB-/	4f\	4BB-/	8r	8r
.	.	.	8dd\	8ff\
4r	4r	4r	(>16dd\LL	16ff\LL
.	.	.	16cc\	16ee-\
.	.	.	16a\	16cc\
.	.	.	16cc\JJ)	16ee-\JJ
!	!LO:LB:g=original	!	!	!
=18	=18	=18	=18	=18
8B-/L	8f\L	16BB-\LL	4b-\	4dd\
.	.	16D\	.	.
8BB-/J	8f\J	16F\	.	.
.	.	16B-\JJ	.	.
!	!	!LO:LB:g=original	!	!
4BB-/	4f\	4BB-/	8r	8r
.	.	.	8f/	8dd\
!	!	!	!	!LO:LB:g=original
4r	4r	4r	16f/LL	(>16dd\LL
.	.	.	16e-/	16cc\
.	.	.	16c/	16a\
.	.	.	16e-/JJ	16cc\JJ)
=19	=19	=19	=19	=19
4f\	4f\	4F\	4e-/	4cc\
4B-/	4f\	4BB-/	4d/	4b-\
!LO:TX:b:t=19	!LO:TX:b:t=19	!LO:TX:i:a:t=Volli	!LO:TX:b:t=19	!LO:TX:b:t=19
!	!	!LO:TX:b:t=19	!	!
4r	4r	4r	4r	4r
!LO:LB:g=original	!	!LO:PB:g=original	!LO:LB:g=original	!
=20:|!|:	=20:|!|:	=20:|!|:	=20:|!|:	=20:|!|:
2.r	2.r	2.r	2.r	16bb-\LL
.	.	.	.	16gg\
.	.	.	.	16eeX\
.	.	.	.	16gg\JJ
.	.	.	.	16bb-\LL
.	.	.	.	16ccc\
.	.	.	.	16ddd-X\
.	.	.	.	16ccc\JJ
.	.	.	.	16bb-\LL
.	.	.	.	16aa-\
.	.	.	.	16gg\
.	.	.	.	16ff\JJ
=21	=21	=21	=21	=21
!	!	!LO:TX:t=P:problem:mixed beam	!	!
2.g\	2.b-\	16C/LL	8g/L	4eeX\
.	.	16c\	.	.
.	.	16Bn\	8g/	.
.	.	16c\JJ	.	.
!	!	!LO:TX:t=P:problem:mixed beam	!	!
.	.	8C/L	8g/	4.ee\
.	.	8c\	8g/	.
.	.	8BB-X/	8g/	.
.	.	8B-y\J	8g/J	(>16ff\LL
.	.	.	.	16gg\JJ)
!	!	!	!	!LO:LB:g=original
=22	=22	=22	=22	=22
4f\	4a-\	4A-X\	4f/	4.ff\
4f\	4a-\	4F\	4a-/	.
.	.	.	.	16ccc\LL
.	.	.	.	16bb-\JJ
4r	4r	4r	4r	16aa-\LL
.	.	.	.	16gg\
.	.	.	.	16ff\
.	.	.	.	16ee-X\JJ
=23	=23	=23	=23	=23
!	!	!LO:TX:t=P:problem:mixed beam	!	!
2.B-/	2.f\	16BB-/LL	8f/L	4dd\
.	.	16B-\	.	.
.	.	16An\	8f/	.
.	.	16B-\JJ	.	.
!	!	!LO:TX:t=P:problem:mixed beam	!	!
.	.	8BB-/L	8f/	4.dd\
.	.	8B-\	8f/	.
.	.	8AA-X/	8f/	.
.	.	8A-y\J	8f/J	16ee-\LL
.	.	.	.	16ff\JJ
=24	=24	=24	=24	=24
4e-\	4g\	4G\	16E-/LL	4ee-\
.	.	.	16G/	.
.	.	.	16B-/	.
.	.	.	16G/JJ	.
*	*	*	*rep	*
4r	4r	8r	16E-/LL	8r
.	.	.	16G/	.
.	.	8B-\	16B-/	8gg\L
.	.	.	16G/JJ	.
*	*	*	*Xrep	*
*	*	*	*rep	*
4r	4r	8B-\L	16E-/LL	8gg\
.	.	.	16G/	.
.	.	8e-\J	16B-/	8gg\J
.	.	.	16G/JJ	.
*	*	*	*Xrep	*
!	!	!LO:LB:g=original	!	!
=25	=25	=25	=25	=25
!LO:N:vis=0	!LO:N:vis=0	!	!	!
1.r	1.r	4c\	16E-/LL	4aa-\
.	.	.	16A-/	.
.	.	.	16c/	.
.	.	.	16A-/JJ	.
*	*	*	*rep	*
.	.	8r	16E-/LL	8r
.	.	.	16A-/	.
.	.	8c\	16c/	8aa-\L
.	.	.	16A-/JJ	.
*	*	*	*Xrep	*
.	.	8d\L	16F/LL	8ff\
.	.	.	16A-/	.
.	.	16f\L	16B-/	8ff\J
.	.	16d\JJ	16A-/JJ	.
=26	=26	=26	=26	=26
.	.	4e-\	16E-/LL	4gg\
.	.	.	16G/	.
.	.	.	16B-/	.
.	.	.	16G/JJ	.
!	!	!	!LO:LB:g=original	!
*	*	*Xtremolo	*rep	*
.	.	8r	16E-/LL	8r
.	.	.	16G/	.
.	.	8B-\L	16B-/	8gg\L
.	.	.	16G/JJ	.
*	*	*	*Xrep	*
*	*	*	*rep	*
.	.	8B-\	16E-/LL	8gg\
.	.	.	16G/	.
.	.	8e-\J	16B-/	8gg\J
.	.	.	16G/JJ	.
*	*	*	*Xrep	*
!	!	!	!	!LO:LB:g=original
=27	=27	=27	=27	=27
2.r	2.r	4c\	16E-/LL	4aa-\
.	.	.	16A-/	.
.	.	.	16c/	.
.	.	.	16A-/JJ	.
*	*	*	*rep	*
.	.	8r	16E-/LL	8r
.	.	.	16A-/	.
.	.	8c\	16c/	8aa-\L
.	.	.	16A-/JJ	.
*	*	*	*Xrep	*
.	.	8d\L	16F/LL	8ff\
.	.	.	16A-/	.
.	.	16f\L	16B-/	8ff\J
.	.	16d\JJ	16A-/JJ	.
!	!LO:LB:g=original	!	!	!
=28	=28	=28	=28	=28
4r	4r	4e-\	4G/	4gg\
8r	8r	8r	8r	8r
8B-/L	8b-\L	8B-\L	8b-/L	8bb-\L
8G/	8g\	8G\	8g/	8gg\
8E-/J	8e-\J	8E-\J	8e-/J	8ee-\J
=29	=29	=29	=29	=29
4BB-/	4B-;>/	4BB-;>/	4B-/	4b-\
!	!	!	!	!LO:TX:a:t=P:problem:fermata obejmuje dwie pauzy
4r	4r	4r	4r	4r;>
4r;>	4r	4r	4r;>	4r
!LO:LB:g=original	!	!LO:LB:g=original	!	!
=30	=30	=30	=30	=30
*clefF4	*	*	*	*
*8va	*	*	*	*
!LO:TX:t=P:problem:w źródle brak przenośnika 8va	!	!	!LO:N:vis=00	!LO:N:vis=00
!LO:TX:t=P:problem:w źródle klucz barytonowy	!	!	!	!
16EE-/LL	2b-\	2g\	0.r	0.r
16E-/	.	.	.	.
16D/	.	.	.	.
16E-/JJ	.	.	.	.
4EE-/	.	.	.	.
.	16qqb-/	8qqg/	.	.
4BB-/	8a-\L	8f\L	.	.
.	16g\L	16e-\L	.	.
.	16f\JJ	16d\JJ	.	.
=31	=31	=31	=31	=31
.	16qqa-/	16qqf/	.	.
4E-/	4g\	4e-\	.	.
4BB-/	4f\	4d\	.	.
4r	4r	4r	.	.
=32	=32	=32	=32	=32
8AA-/L	4e-\	2c\	.	.
8AA-/	.	.	.	.
8AA-/	8c\L	.	.	.
8AA-/	8e-\J	.	.	.
8AA-/	16a-\LL	8c\L	.	.
.	16cc\	.	.	.
8AA-/J	16a-\	16f\L	.	.
.	16g\JJ	16e-\JJ	.	.
=33	=33	=33	=33	=33
!LO:TX:t=P:problem:mixed beam	!	!	!	!
8.BB-/L	4g\	4e-\	.	.
16B-\Jk	.	.	.	.
4BB-/	4f\	4d\	.	.
4r	4r	4r	.	.
!	!LO:LB:g=original	!	!	!
=34	=34	=34	=34	=34
!LO:TX:t=P:problem:mixed beam	!	!	!LO:N:vis=0	!LO:N:vis=0
8BB-/L	4.f\	16BB-\LL	1.r	1.r
.	.	16D\	.	.
8B-\	.	16F\	.	.
.	.	16B-\JJ	.	.
8BB-/	.	8d\L	.	.
8B-\	8g\	8e-\J	.	.
.	8qqb-/	.	.	.
8BB-/	8a-\L	8f\L	.	.
8B-\J	16g\L	16e-\L	.	.
.	16f\JJ	16d\JJ	.	.
=35	=35	=35	=35	=35
8E-/	16g\LL	8e-\	.	.
.	16e-\	.	.	.
8r	16f\	8r	.	.
.	16g\JJ	.	.	.
!	!	!LO:LB:g=original	!	!
8BB-/	16a-\LL	8d\	.	.
.	16f\	.	.	.
8r	16g\	8r	.	.
.	16a-\JJ	.	.	.
8EE-/	16b-\LL	8e-\	.	.
.	16cc\	.	.	.
8r	16dd\	8r	.	.
.	16ee-\JJ	.	.	.
!LO:LB:g=original	!	!	!	!
=36	=36	=36	=36	=36
.	8qqdd/	.	.	.
!	!	!	!LO:N:vis=1	!LO:N:vis=1
4AA-/	8cc\L	8c\L	2.r	2.r
.	16b-\L	8f\J	.	.
.	16a-\JJ	.	.	.
4BB-/	4g\	4e-\	.	.
4BB-/	4f\	4d\	.	.
=37	=37	=37	=37	=37
4EE-/	4e-\	16E-\LL	2gg\	2bb-\
.	.	16e-\	.	.
.	.	16d\	.	.
.	.	16e-\JJ	.	.
4r	4r	4E-\	.	.
.	.	.	.	8qqbb-/
4r	4r	4B-\	8ff\L	8aa-\L
.	.	.	16ee-\L	16gg\L
.	.	.	16dd\JJ	16ff\JJ
*X8va	*	*	*	*
=38	=38	=38	=38	=38
*clefG2	*	*	*	*
.	.	.	.	8qqaa-/
4G/	4e-\	4E-\	4ee-\	4gg\
4B-/	4f\	4BB-/	4dd\	4ff\
4r	4r	4r	4r	4r
!	!LO:LB:g=original	!	!LO:LB:g=original	!LO:LB:g=original
=39	=39	=39	=39	=39
!LO:N:vis=1	!LO:TX:a:t=I	!LO:TX:t=P:problem:mixed beam	!	!
!	!LO:N:vis=1	!	!	!
2.r	2.r	8AA-/L	2cc\	4ee-\
.	.	8A-\J	.	.
*	*	*tremolo	*	*
.	.	8A-\L	.	8cc\L
.	.	8A-\	.	8ff\J
.	.	8A-\	8cc\L	16aa-\LL
.	.	.	.	16ccc\
.	.	8A-\J	16ff\L	16aa-\
.	.	.	16ee-\JJ	16gg\JJ
=40	=40	=40	=40	=40
.	.	.	.	8qqaa-/
4e-\	4g\	4B-\	4ee-\	4gg\
4B-/	4f\	4BB-/	4dd\	4ff\
4r	4r	4r	4r	4r
=41	=41	=41	=41	=41
4G/	4e-\	2E-\	2g/	16r
.	.	.	.	16e-/LL
.	.	.	.	16g/
.	.	.	.	16b-/JJ
4r	4r	.	.	16ee-\LL
.	.	.	.	16b-\
.	.	.	.	16ee-\
.	.	.	.	16gg\JJ
!	!	!LO:LB:g=original	!	!
*	*	*Xtremolo	*Xtremolo	*
4r	4r	8e-\L	8g/L	8bb-\L
.	.	8e-\J	8g/J	8bb-\J
=42	=42	=42	=42	=42
4B-/	4f\	2d\	2f/	16r
.	.	.	.	16d/LL
.	.	.	.	16f/
.	.	.	.	16b-/JJ
4r	4r	.	.	16dd\LL
.	.	.	.	16b-\
.	.	.	.	16dd\
.	.	.	.	16ff\JJ
4r	4r	8d\L	8f/L	8bb-\L
.	.	8d\J	8f/J	8bb-\J
!LO:LB:g=original	!	!	!	!LO:LB:g=original
=43	=43	=43	=43	=43
4E-/	4e-\	2e-\	2g/	16r
.	.	.	.	16e-/LL
.	.	.	.	16g/
.	.	.	.	16b-/JJ
4r	4r	.	.	16ee-\LL
.	.	.	.	16b-\
.	.	.	.	16ee-\
.	.	.	.	16gg\JJ
4r	4r	8e-\L	8g/L	8bb-\L
.	.	8e-\J	8g/J	8bb-\J
=44	=44	=44	=44	=44
4E-/	4e-\	4A-\	2cc\	16r
.	.	.	.	16e-/LL
.	.	.	.	16a-/
.	.	.	.	16cc/JJ
4r	4r	4r	.	16ee-\LL
.	.	.	.	16cc\
.	.	.	.	16ee-\
.	.	.	.	16aa-\JJ
4r	4r	8A-\L	8cc\L	16ccc\LL
.	.	.	.	16aa-\
.	.	8A-\J	8cc\J	16gg\
.	.	.	.	16ff\JJ
=45	=45	=45	=45	=45
!	!	!LO:TX:t=P:problem:mixed beam	!	!
4r	4r	8G\L	8b-\L	8gg\L
.	.	.	16qqdd-X/	8qqbb-/
!	!	!	!	!LO:N:vis=32
.	.	8A-\	16cc\L	16aa-\L
.	.	.	32b-\L	32gg\L
.	.	.	32a-\JJJ	32ff\JJJ
4e-\	4g\	8B-\	4g/	4ee-\
.	.	8B-\	.	.
4B-/	4f\	8BB-/	4f/	4dd\
.	.	8BB-/J	.	.
=46	=46	=46	=46	=46
*Xtremolo	*	*	*	*
8G/L	8e-\L	16E-\LL	4g/	4ee-\
.	.	16G\	.	.
8G/J	8e-\J	16B-\	.	.
.	.	16e-\JJ	.	.
4G/	4e-\	4E-\	8r	8r
.	.	.	8gg\	8bb-\
!	!	!	!	!LO:LB:g=original
4r	4r	4r	(>16gg\LL	16bb-\LL
.	.	.	16ff\	16aa-\
.	.	.	16dd\	16gg\
.	.	.	16ff\JJ)	16aa-\JJ
!	!LO:LB:g=original	!LO:LB:g=original	!	!
=47	=47	=47	=47	=47
8G/L	8e-\L	16E-\LL	4ee-\	4gg\
.	.	16G\	.	.
8G/J	8e-\J	16B-\	.	.
.	.	16e-\JJ	.	.
4G/	4e-\	4E-\	8r	8r
.	.	.	8b-\	8gg\
!	!	!	!LO:LB:g=original	!
4r	4r	4r	(>16b-/LL	16gg\LL
.	.	.	16a-/	16ff\
.	.	.	16f/	16dd\
.	.	.	16a-/JJ)	16ff\JJ
=48	=48	=48	=48	=48
4B-/	4f\	4E-\	4a-\	4ff\
4G/	4e-\	4EE-/	4g\	4ee-\
!LO:TX:b:t=29	!LO:TX:b:t=29	!LO:TX:b:t=29	!LO:TX:b:t=29	!LO:TX:b:t=29
4r	4r	4r	4r	4r
=:|!	=:|!	=:|!	=:|!	=:|!
*-	*-	*-	*-	*-
!!!system-decoration: [(g1)][(g2)]
!!!RDF**kern: | = vertical stroke
!!!RDF**kern: > = above
!!!RDF**kern: < = below
!!!ENC: Krzysztof Stępień
!!!END: 2021-06-15
!!!EED: Antoni Szymański
!!!EST: 2021-06-20
